X:118
T:Turkey In The Straw
C:Traditional
M:4/4
L:1/8
Q:1/8=430
K:C
BA|:G^FGA GDB,C|DEDB, D2GD|BABc BAGA|B2A2 A4|
G^FGA GDB,C|DEDB, D2GA|BABc dBGA|BGA^F G2GA:|
|:BddB d2dc|BddB d2dd|ceec e2ed|ceec e4|
gage dedc|BABc A2GA|BABc dBGA|1 BGA^F G2GA:|2 BGA^F G4|
